!!!!SEGMENT: pl-kc--40102-iii-1-saf--001-012_zielenski-mikolaj--offertoria-totius-anni-in-festo-s-andraeae-apostoli-mihi-autem.krn
!!!cenid: 16xx:1490
!!!COM: Zieleński, Mikołaj
!!!COM-rismID: pe30013481
!!!CDT: <1611->1611
!!!CNT: Polish
!!!GTL: Offertoria totius anni
!!!OTL: In festo S. Andraeae Apostoli/Mihi autem
!!!OMV: 012
!!!PDT: 1611
!!!AGN: Sacred
!!!YEC: Copyright 2022 Narodowy Instytut Fryderyka Chopina (https://polishscores.org)
!!!YEM: License CC-BY-4.0 (https://creativecommons.org/licenses/by/4.0)
!!!SMS-siglum: PL-Kc
!!!SMS-shelfmark: 40102 III/1 Saf.
!!!SMS-shelfwork: 001-012 G
!!!SMS-variant:
!!!SMS-altvar:
!!!NIFC-rismSourceID: 990069886
!!!NIFC-rismChildID: 990069886
!!!NIFC-islandoraID: none
!!!URL-pdf-islandora:
!!!URL-scan: https://cyfrowe.mnk.pl/dlibra/publication/24235/edition/23926/content?ref=desc @EN{Scan on The National Museum in Krakow Website} @PL{Skany w portalu Biblioteka Cyfrowa Muzeum Narodowego w Krakowie}
!!!IIIF:
!!!ONB-nifc: UWAGA: str. 12-13. Uwaga: W xml metrum 2/1 do źródłowego C| i odpowiednio 3/1 do 3/2
!!!AIN: 4 organ
!!!key: a
**kern	**kern	**kern	**kern
*group1	*group1	*group1	*group1
*part4	*part3	*part2	*part1
*staff4	*staff3	*staff2	*staff1
*I""Organo	*I""Organo	*I""Organo	*I""Organo
*I''org	*I''org	*I''org	*I''org
*Iorgan	*Iorgan	*Iorgan	*Iorgan
*ICklav	*ICklav	*ICklav	*ICklav
*clefF5	*clefC3	*clefF3	*clefC1
*k[]	*k[]	*k[]	*k[]
*a:	*a:	*a:	*a:
*M2/1	*M2/1	*M2/1	*M2/1
*met(C|)	*met(C|)	*met(C|)	*met(C|)
=1	=1	=1	=1
!	!	!LO:TX:a:t=Mihi auté Tromboni.	!LO:TX:a:t=In feſto S. Andraeae Apoſtoli. A 8.
00r	00r	0r	1.A
.	.	.	2c/
=2-	=2-	=2-	=2-
.	.	1r	2c/
.	.	.	2d/
.	.	[y1E	1e
=3	=3	=3	=3
!	!	!LO:N:xstem:cue:vis=4	!
00r	00r	2E/]	1.B
.	.	2G\	.
.	.	1.E	.
.	.	.	1e
=4-	=4-	=4-	=4-
.	.	.	.
.	.	2G\	2d/
.	.	2E/	1g
.	.	2A\	.
=5	=5	=5	=5
00r	00r	1B	2g/
.	.	.	2.g/
.	.	2E/	.
.	.	.	4f/
.	.	2.A\	4e/
.	.	.	4d/
=6-	=6-	=6-	=6-
.	.	.	2.e/
.	.	8G#X\	.
!	!	!LO:SIC:v:s=8F#\	!
.	.	8F\	.
.	.	2G#\	.
.	.	.	4d/
.	.	[y1AA	4c/
.	.	.	4B/
.	.	.	4A/
.	.	.	4B/
=7	=7	=7	=7
!	!	!LO:N:xstem:cue:vis=4	!
00r	00r	2AA/]	4c/
.	.	.	4d/
.	.	2C/	4e/
.	.	.	4f/
.	.	2C/	4g/
.	.	.	4e/
.	.	2D/	1a
=8-	=8-	=8-	=8-
.	.	1.E	.
.	.	.	4g/
.	.	.	4f/
.	.	.	2g/
.	.	2C/	2a\
=9	=9	=9	=9
*	*	*lig	*
00r	00r	1BB	1b
*	*	*col	*
.	.	2.AA/	2e/
.	.	.	2.cc\
*	*	*Xlig	*
.	.	4BB/	.
*	*	*Xcol	*
=10-	=10-	=10-	=10-
.	.	2.C/	.
.	.	.	4b\
.	.	.	2a\
.	.	4D/	.
.	.	4E/	2g/
.	.	8D/	.
.	.	8E/	.
.	.	[y2F/	2c/
=11	=11	=11	=11
!	!	!LO:N:xstem:cue	!
00r	00r	4F/]	1.a
.	.	4E/	.
.	.	4D/	.
.	.	4C#X/	.
.	.	2D/	.
.	.	4Cny/	2cc\
.	.	4BB/	.
=12-	=12-	=12-	=12-
.	.	2AA/	2cc\
.	.	2BB/	2dd\
.	.	2C/	1ee
.	.	4BB/	.
!LO:TX:b:t=Partitura Nicolai Zielenski.	!	!	!
.	.	4AA/	.
=13	=13	=13	=13
1.EE	0r	00E	2b\
.	.	.	2.ee\
.	.	.	4dd\
2AA/	.	.	4cc\
.	.	.	4b\
=14-	=14-	=14-	=14-
2AA/	1r	.	2cc\
2BB/	.	.	4b\
.	.	.	4a\
2C\	2r	.	4g/
.	.	.	4e/
4BB/	[2c/	.	[<2a\
4AA/	.	.	.
=15	=15	=15	=15
*lig	*	*	*
1E	2c/]	1r	2a\]
.	4B/	.	4g#X/
!	!	!	!LO:SIC:v:s=4f#/
.	4A/	.	4f/
1EE	2B/	1.E	2g#X/
.	2B/	.	2g#/
*Xlig	*	*	*
=16-	=16-	=16-	=16-
1AA	1c	.	2a\
.	.	2E/	1ee
1DD	2d\	2F/	.
.	4D/	2F/	4dd\
.	4E/	.	4cc\
*custos:DD	*custos:F	*custos:F	*custos:dd
!!LO:PB:g=original
=17	=17	=17	=17
1DD	4F/	1F	2dd\
.	4G/	.	.
.	4A/	.	2dd\
.	4B/	.	.
1AA	1c	2E/	2ee\
.	.	1A	1ee
=18-	=18-	=18-	=18-
0r	0r	.	.
.	.	2c\	2ee\
.	.	2.G\	2.dd\
.	.	4D/	4dd\
=19	=19	=19	=19
1r	1r	2A\	2cc\
.	.	2AA/	2cc\
2r	2r	1E	1b
1EE	1B	.	.
=20-	=20-	=20-	=20-
.	.	0r	0r
2AA/	2c#X/	.	.
2.DD/	2.d\	.	.
4FF/	4cny/	.	.
=21	=21	=21	=21
2CC/	2c/	00r	00r
2DD/	2A/	.	.
1AA	2A/	.	.
.	2c#X/	.	.
=22-	=22-	=22-	=22-
2r	2d\	.	.
2AA/	2e\	.	.
2BB/	2r	.	.
2C#X\	2A/	.	.
=23	=23	=23	=23
2D\	2B/	00r	0r
4AA/	2c#X/	.	.
4AA/	.	.	.
2GG/	2d\	.	.
*	*lig	*	*
2EE/	1e	.	.
=24-	=24-	=24-	=24-
2FF/	.	.	1r
2DD/	1d	.	.
1AA	.	.	2r
*	*Xlig	*	*
.	2cny/	.	2a\
=25	=25	=25	=25
1EE	2B/	2r	2b\
.	2r	2E/	2cc#X\
1r	1r	2F#X/	1.dd
.	.	2G\	.
=26-	=26-	=26-	=26-
0r	0r	1A	.
.	.	.	1ccny
.	.	1E	.
.	.	.	[<2b\
=27	=27	=27	=27
0r	0r	0AA	2b\]
.	.	.	4a\
.	.	.	4g/
.	.	.	1a
=28-	=28-	=28-	=28-
2r	2r	1.E	1b
1EE	1e	.	.
.	.	.	2r
2EE/	2B/	[<2E/	[2ee\
=29	=29	=29	=29
2.AA/	2.c#X/	2E/]	2ee\]
.	.	2E/	2cc#X\
4AA/	4A/	.	.
1DD	2d\	2.D/	2.dd\
.	2d\	.	.
.	.	4D/	4dd\
=30-	=30-	=30-	=30-
1GG	1d	2D/	2dd\
.	.	2D/	2b\
1CC	1r	2.C/	2cc\
.	.	.	2ee\
.	.	4E/	.
=31	=31	=31	=31
1r	1r	2F/	1dd
.	.	2G\	.
2r	2r	2A\	2cc\
2AA/	2c/	2E/	2cc\
=32-	=32-	=32-	=32-
2BB/	2d\	1r	2g/
2C\	2e\	.	2r
(1D	2A/	2r	2r
.	4d\	2A\	2a\
.	4d\	.	.
=33	=33	=33	=33
1GG)	2B/	2G\	2b\
.	2e\	2G\	2cc\
*	*lig	*	*
1GG	1d	2.G\	1dd
.	.	4F/	.
=34-	=34-	=34-	=34-
2.C\	1e	4E/	2cc\
.	.	4D/	.
.	.	1E	2.ee\
4BB/	.	.	.
*	*Xlig	*	*
2AA/	1e	.	.
.	.	.	4dd\
2AA/	.	[<2A\	2cc\
=35	=35	=35	=35
0BB	0B	2A\]	1b
.	.	2G\	.
.	.	1F#X	1b
=36-	=36-	=36-	=36-
1EE	1B	1E	1b
1r	1r	2r	2r
.	.	[<2A\	[<2a\
=37	=37	=37	=37
00r	00r	2A\]	2a\]
.	.	2G\	2b\
.	.	2.F/	2.cc\
.	.	4E/	4cc\
=38-	=38-	=38-	=38-
.	.	2F/	2dd\
.	.	2G\	2dd\
.	.	2.C/	2.ee\
.	.	[<4F/	[<4cc\
=39	=39	=39	=39
00r	00r	4F/]	4cc\]
.	.	4F/	4cc\
.	.	2D/	2ff\
.	.	2G\	2dd\
.	.	4r	4r
.	.	2G\	2dd\
=40-	=40-	=40-	=40-
.	.	.	.
.	.	4G\	4dd\
.	.	2E/	2gg\
.	.	2C/	2ee\
.	.	4r	4r
.	.	[<4F/	[<4cc\
=41	=41	=41	=41
00r	00r	4F/]	4cc\]
.	.	4F/	4cc\
.	.	2D/	2dd\
.	.	2E/	2b\
.	.	4E/	2.ee\
.	.	4D/	.
=42-	=42-	=42-	=42-
.	.	4C/	.
.	.	4BB/	4dd\
.	.	1AA	4cc\
.	.	.	4b\
.	.	.	4cc\
.	.	.	4a\
.	.	2E/	4b\
.	.	.	4cc\
*custos:AA	*custos:A	*custos:D	*custos:b
!!LO:LB:g=original
=43	=43	=43	=43
0r	0r	2F/	4b\
.	.	.	4a\
.	.	2AA/	2.a\
.	.	1E	.
.	.	.	8g#X/
!	!	!	!LO:SIC:v:s=8f#/
.	.	.	8f/
.	.	.	2g#/
=44-	=44-	=44-	=44-
2r	2r	1AA	1a
1AA	1A	.	.
.	.	1r	1r
2GG/	2B/	.	.
=45	=45	=45	=45
2.FF/	2.c/	00r	00r
4EE/	4c/	.	.
2FF/	2d\	.	.
2GG/	2d\	.	.
=46-	=46-	=46-	=46-
2.CC/	2.e\	.	.
2FF/	2c/	.	.
4FF/	4c/	.	.
2DD/	2f\	.	.
=47	=47	=47	=47
2.GG/	2.d\	00r	00r
2GG/	2d\	.	.
4GG/	4d\	.	.
2EE/	2g\	.	.
=48-	=48-	=48-	=48-
2.AA/	2.e\	.	.
2FF/	2f\	.	.
4FF/	4c/	.	.
2CC/	2e\	.	.
=49	=49	=49	=49
2GG/	2d\	0r	0r
2EE/	4e\	.	.
.	4d\	.	.
2.FF/	4c/	.	.
.	4A/	.	.
.	2.f\	.	.
4EE/	.	.	.
=50-	=50-	=50-	=50-
(>1DD	.	1r	1r
.	4e\	.	.
.	2.d\	.	.
1AA)	.	2r	2r
.	8c#X/	.	.
.	8B/	.	.
.	2c#/	[<2A\	[<2a\
=51	=51	=51	=51
1DD	1d	2A\]	2a\]
.	.	2D/	2dd\
0r	0r	2.G\	2.b\
.	.	4G\	4b\
=52-	=52-	=52-	=52-
.	.	2C/	2cc\
.	.	2D/	2a\
2r	2r	1E	1g#X
[<2EE/	[<2e\	.	.
=53	=53	=53	=53
2EE/]	2e\]	0r	0r
2AA/	2e\	.	.
2.DD/	2.f\	.	.
4DD/	4f\	.	.
=54-	=54-	=54-	=54-
2D\	2f\	1r	1r
2BB/	2d\	.	.
2AA/	2c#X/	2r	2r
!	!LO:N:acc=-	!	!
1AA	1cn	1A	1ee
=55-	=55-	=55-	=55-
.	.	.	.
2FF/	2c/	2AA/	2ff\
=	=	=	=
2.GG/	2.G/	2.D/	2.dd\
4GG/	4G/	4BB/	4dd\
=56-	=56-	=56-	=56-
2EE/	2B/	2E/	2ee\
2AA/	2c/	2E/	2cc\
1EE	1e	4E/	4b\
.	.	2E/	2ee\
.	.	4E/	4b\
=57-	=57-	=57-	=57-
1r	1r	2A\	2cc#X\
.	.	4D/	4dd\
.	.	4D/	4ff\
=	=	=	=
2r	2r	2A\	2ee\
4r	4r	2D/	2dd\
2DD/	2f\	.	.
=58-	=58-	=58-	=58-
.	.	0r	0r
4DD/	4d\	.	.
2AA/	2e\	.	.
4GG/	4f\	.	.
4GG/	4a\	.	.
2C\	2g\	.	.
=59-	=59-	=59-	=59-
4FF/	4f\	4r	4r
2FF/	2f\	2F/	2ff\
4FF/	4f\	4F/	4cc\
=	=	=	=
2CC/	2e\	2G\	2ee\
4GG/	4g\	4D/	4dd\
2DD/	2f\	2F/	2dd\
=60-	=60-	=60-	=60-
.	.	.	.
4DD/	4f\	4D/	4ff\
2AA/	2c/	2E/	2ee\
2FF/	2c/	4AA/	2ff\
.	.	4BB/	.
2FF/	2c/	4C/	2cc\
.	.	4BB/	.
=61-	=61-	=61-	=61-
1CC	1c	4C/	1ee
.	.	4D/	.
.	.	4E/	.
.	.	4C/	.
=	=	=	=
2GG/	1G	2D/	2dd\
2EE/	.	2G\	2.ee\
=62-	=62-	=62-	=62-
1AA	2r	2C/	.
.	.	.	4dd\
.	2.e\	1E	4cc\
.	.	.	8b\
.	.	.	8a\
0EE	.	.	4b\
.	4e\	.	4e/
.	2A/	2E/	2.a\
=63-	=63-	=63-	=63-
.	4e\	2E/	.
.	4e\	.	8g#X/
!	!	!	!LO:SIC:v:s=8f#/
.	.	.	8f/
.	2e\	2E/	2g#/
=	=	=	=
2AA/	2c/	1.E	2a\
1AA	1c	.	1ee
=64-	=64-	=64-	=64-
.	.	.	.
2E\	2B/	2E/	2b\
2.AA/	1e	0E	2.cc\
4BB/	.	.	4dd\
=65-	=65-	=65-	=65-
2C\	2e\	.	4ee\
.	.	.	4b\
2GG/	4e\	.	2ee\
.	4d\	.	.
*custos:AA	*custos:c	*custos:E	*custos:ee
!!LO:LB:g=original
=	=	=	=
00AA	4c/	00E	4ee\
.	4B/	.	4dd\
.	4A/	.	4cc\
.	4B/	.	4b\
=66-	=66-	=66-	=66-
.	4c/	.	2a\
.	4B/	.	.
.	4c/	.	2.ee\
.	4d\	.	.
.	1.e	.	.
.	.	.	4dd\
.	.	.	4cc\
.	.	.	4b\
=67-	=67-	=67-	=67-
.	.	.	2cc\
.	2A/	.	2cc\
1EEl	1el	1El	1bl
==	==	==	==
*-	*-	*-	*-
!!!system-decoration: *
!!!RDF**kern: > = above
!!!RDF**kern: < = below
!!!RDF**kern: l = terminal long
!!!ENC: Filip Voros
!!!END: 2021-12-10
!!!ENC: Andrzej Kubiczek
!!!END: 2021-12-19
